X: 1
T: Dandy Jim O' Caroline
M: 2/4
L: 1/8
R: polka
K: Gmaj
G/A/|: BG AG | EG GG/A/ | BG AG | Bd d/e/d/c/ |
BG AG | EG GA/B/ | ce d>c |1 BG GG/A/:|2BG Gd/e/ ||
|: gd ed | Bd dd/e/ | gd ed | BG Gd/e/ |
gd ed | Bd dA/B/ | ce d>c |1 BG Gd/e/:|2 BG G2|
